!!!OTL: ICH WOLLT EIN STRAEUSSLEIN BINDEN
!!!ARE: Europa, Mitteleuropa, Deutschland
!!!SCT: B0482
!!!YEM: Copyright 1995, estate of Helmut Schaffrath.
**kern
*ICvox
*Ivox
*M6/8
*k[b-e-]
*B-:
{8f
=1
4f
8b-
8b-
8a
8b-
=2
4bn
8cc
4cc}
{8f
=3
4b-
8f
4f
8e-
=4
4.d
4r}
{8f
=5
4f
8b-
8b-
8a
8b-
=6
4.bn
4cc}
{8f
=7
4f
8dd
8.cc
16ee-
16dd
16cc
=8
4.b-
4r}
==
!!!AGN: Liebes - Lied, Leid, Klage
!!!ONB: ESAC (Essen Associative Code) Database: BOEHME
!!!AMT: compound duple
!!!AIN: vox
!!!EED: Helmut Schaffrath
!!!EEV: 1.0
*-
